X: 30291
U: Q=!diminuendo(!
U: q=!diminuendo)!
M: 3/8
L: 1/16
K: G
!p!Bc |\
d3ed2 | d2d2d2 | (db)(ba)(ag) | (gf)(fe)(ed) |\
c3dc2 | c2c2c2 | (ca)(ag)(gf) | (fe)(ed)(dc) |\
"^fz"B2 B4 | (Bc^cd^de) | A2 A4 | (AedcBA) |
"^fz"B2 B4 | (Bc^cd^de) | A2 A4 | (AedcBA) |\
.G2.A2.B2 | .c2.A2.d2 | "_cresc."G>GA>AB>B | c>cA>Ad>d |\
QA3BqA2 | (Afgfed) | (d2^c2c2) | ^c3Ace |\
(gfed^cB) | A^GA^ABG | G2F2F2 | F4 A2 |\
d4 ^d2 | (efga)b2 | d4 e2 | d3Bc"^D.C."^B |]


